svg/family_planning_outline.svg

<?xml version="1.0" encoding="UTF-8" standalone="no"?>
<!-- Created with Inkscape (http://www.inkscape.org/) -->
<svg id="svg8" xmlns:rdf="http://www.w3.org/1999/02/22-rdf-syntax-ns#" xmlns="http://www.w3.org/2000/svg" xmlns:osb="http://www.openswatchbook.org/uri/2009/osb" height="48" width="48" version="1.1" xmlns:cc="http://creativecommons.org/ns#" viewBox="0 0 12.7 12.7" xmlns:dc="http://purl.org/dc/elements/1.1/">
 <title id="title4753">UIO-icon</title>
 <metadata id="metadata5">
  <rdf:RDF>
   <cc:Work rdf:about="">
    <dc:format>image/svg+xml</dc:format>
    <dc:type rdf:resource="http://purl.org/dc/dcmitype/StillImage"/>
    <dc:title>UIO-icon</dc:title>
    <dc:creator>
     <cc:Agent>
      <dc:title>Joaquín Urbano</dc:title>
     </cc:Agent>
    </dc:creator>
    <dc:rights>
     <cc:Agent>
      <dc:title>GPL</dc:title>
     </cc:Agent>
    </dc:rights>
   </cc:Work>
  </rdf:RDF>
 </metadata>
 <g id="layer1" transform="translate(0,-284.3)">
  <path id="path3058" d="m13.689 8.0977c-1.933-3.5e-8 -3.5 1.567-3.5 3.5-3e-8 1.933 1.567 3.5 3.5 3.5 1.933 3e-8 3.5-1.567 3.5-3.5 3e-8 -1.933-1.567-3.5-3.5-3.5zm10.586 0v0.0019531c-0.046519-0.00063345-0.093818-0.000528-0.14062 0-0.71853 0.0094488-1.42 0.15976-2.0703 0.43359s-1.249 0.67229-1.7578 1.1797c-0.54008 0.53857-0.94621 1.1615-1.2168 1.8262-0.27059 0.66463-0.40722 1.3712-0.4082 2.0781-0.00098674 0.70691 0.13361 1.4127 0.40234 2.0781 0.26873 0.66541 0.67432 1.29 1.2129 1.8301 0.53857 0.53952 1.1596 0.94461 1.8242 1.2148 0.66464 0.27023 1.3712 0.40547 2.0781 0.40625 0.70691 0.00078349 1.4147-0.13353 2.0801-0.40234 0.6654-0.26882 1.29-0.67237 1.8301-1.2109 0.54004-0.53857 0.94426-1.1597 1.2148-1.8242 0.27058-0.66451 0.40721-1.3733 0.4082-2.0801 0.00099528-0.70674-0.13362-1.4128-0.40234-2.0781-0.269-0.665-0.672-1.288-1.211-1.8283-0.511-0.5122-1.11-0.9141-1.764-1.1895-0.653-0.2754-1.358-0.425-2.08-0.4355zm10.451 0c-1.933 0-3.5 1.567-3.5 3.5s1.567 3.5 3.5 3.5 3.5-1.567 3.5-3.5-1.567-3.5-3.5-3.5zm-21.037 0.5527c1.6277 0.00016954 2.9471 1.3196 2.9473 2.9473-0.00016953 1.6277-1.3196 2.9471-2.9473 2.9473-1.6284 0.0009094-2.949-1.3188-2.9492-2.9473 0.00016936-1.6284 1.3208-2.9482 2.9492-2.9473zm21.037 0c1.6277 0.00015118 2.9471 1.3196 2.9473 2.9473-0.00016889 1.6277-1.3196 2.9471-2.9473 2.9473-1.6284 0.00090703-2.949-1.3189-2.9492-2.9473 0.00017008-1.6284 1.3208-2.9482 2.9492-2.9473zm-10.538 0.5762v0.0019531c0.064559 0 0.12861 0.00011476 0.19336 0.0019531 0.55356 0.021581 1.0929 0.14706 1.5918 0.36523 0.49889 0.21817 0.95809 0.52991 1.3496 0.92187 0.39111 0.39317 0.69182 0.8441 0.9043 1.3262 0.21248 0.48207 0.3364 0.99469 0.36719 1.5137 0.030788 0.51898-0.0316 1.043-0.18555 1.5469-0.15395 0.50389-0.40046 0.98703-0.74219 1.4238l-6.1562-6.1758c0.382-0.2981 0.81-0.5286 1.262-0.6852 0.453-0.1566 0.93-0.2389 1.415-0.2402zm2.123 1.498c-0.40174-0.002363-0.89807 0.1015-1.2637 0.39648-0.1828 0.14749-0.33334 0.34207-0.42188 0.5957-0.088532 0.25364-0.11529 0.56628-0.052734 0.94727-0.047836 0.026948-0.076172 0.062609-0.080078 0.11328l0.54102 0.53125c0.023836 0 0.043471-0.010908 0.054688-0.041016 0.54232 0.11445 0.9563 0.040278 1.2676-0.14062 0.31128-0.1809 0.52028-0.46784 0.64648-0.77734s0.1711-0.6427 0.1582-0.91406c-0.012894-0.27136-0.083438-0.48235-0.18945-0.54883-0.088248-0.091589-0.34575-0.15828-0.66016-0.16016zm-5.5625 0.19141l6.158 6.178c-0.43786 0.34057-0.9233 0.58592-1.4277 0.73828-0.50444 0.15236-1.0279 0.21224-1.5469 0.17969-0.518-0.033-1.032-0.157-1.513-0.371-0.482-0.215-0.932-0.52-1.324-0.912-0.391-0.394-0.694-0.845-0.906-1.327-0.213-0.482-0.335-0.994-0.366-1.513-0.030958-0.51898 0.027821-1.043 0.18164-1.5469 0.15382-0.50388 0.40241-0.98899 0.74414-1.4258zm2.2109 2.7129c-0.12151 0.06384-0.14969 0.19017-0.13477 0.3457 0.014925 0.15553 0.072299 0.33988 0.125 0.52148 0.052701 0.18161 0.099978 0.35987 0.091797 0.50195s-0.072512 0.24821-0.24023 0.28516c-0.75261-0.005027-1.0927 0.16197-1.2441 0.39258-0.15145 0.23061-0.11279 0.52524-0.10742 0.77539 0.078445-0.3565 0.14745-0.566 0.33203-0.68555s0.48328-0.14976 1.0195-0.14844c0.27457-0.053541 0.51808-0.14504 0.65625-0.36328s0.17126-0.5642 0.027344-1.123zm-9.6172 2.3301-3.1875 0.001953v0.008c-0.5724 0.011-1.119 0.327-1.3884 0.879l-3.8691 7.925c-0.38289 0.78455-0.058027 1.7246 0.72656 2.1074 0.78459 0.3829 1.7226 0.060096 2.1055-0.72461l2.4258-4.9707v17.176c0 0.87303 0.70118 1.5762 1.5742 1.5762 0.87303 0 1.5762-0.70314 1.5762-1.5762v-9.267h0.75977v9.2676c0 0.87303 0.70314 1.5762 1.5762 1.5762 0.87303 0 1.5762-0.70314 1.5762-1.5762v-17.188l2.432 4.982c0.14526 0.29765 0.37197 0.52826 0.63867 0.67969l-1.6797 3.4414c-0.2439 0.49975-0.036883 1.0999 0.46289 1.3438s1.0959 0.036956 1.3398-0.46289l1.5449-3.166v10.941c0 0.55611 0.4478 1.0039 1.0039 1.0039 0.55611 0 1.0039-0.4478 1.0039-1.0039v-5.9043h0.48438v5.9043c0 0.55611 0.4478 1.0039 1.0039 1.0039 0.55611 0 1.0039-0.4478 1.0039-1.0039v-10.949l1.5488 3.1738c0.24389 0.49977 0.84202 0.70677 1.3418 0.46289 0.1731-0.084478 0.29464-0.22013 0.39062-0.37109h1.4551v7.1113c0 0.87303 0.70118 1.5762 1.5742 1.5762 0.87303 0 1.5762-0.70314 1.5762-1.5762v-7.111h0.75977v7.1113c0 0.87303 0.70314 1.5762 1.5762 1.5762 0.87303 0 1.5762-0.70314 1.5762-1.5762v-7.111h2.2207c-1.83-3.819-2.22-6.313-2.22-10.076l2.432 4.982c0.38289 0.78459 1.3228 1.1075 2.1074 0.72461 0.78459-0.3829 1.1075-1.3228 0.72461-2.1074l-3.87-7.925c-0.2705-0.55431-0.8192-0.87338-1.3945-0.88086v-0.007813h-3.875l-3.1875 0.001953v0.007813c-0.5727 0.011339-1.1193 0.32691-1.3887 0.87891l-3.8164 7.8164h-3.5586l-3.8164-7.8164c-0.2705-0.55431-0.81919-0.87338-1.3945-0.88086v-0.007813h-3.1875zm3.8184 0.57617v0.011719c0.37576 0.010167 0.73356 0.21252 0.91211 0.57422l0.82812 1.6777c0.009676 0.01852 0.02635 0.026024 0.035156 0.044922l2.8848 5.8477c-0.31261 0.048159-0.59809 0.22981-0.74805 0.53711l-0.56 1.146c-0.15938-0.099479-0.30296-0.22658-0.39258-0.4082l-0.83008-1.6797c-0.009373-0.01474-0.024586-0.026024-0.033203-0.044922l-2.5703-5.207v19.262c0 0.28959-0.11571 0.55126-0.30469 0.74023-0.18888 0.18822-0.45141 0.30416-0.74023 0.30469-0.28961 0-0.55125-0.11571-0.74023-0.30469-0.189-0.189-0.307-0.451-0.307-0.74v-9.748h-1.8184v9.748c2e-8 0.57921-0.46765 1.0449-1.0469 1.0449-0.57923 0-1.0449-0.46571-1.0449-1.0449v-19.297l-2.5879 5.2422c-0.0086173 0.01852-0.023792 0.029804-0.033203 0.044922l-0.8305 1.678c-0.2564 0.519-0.881 0.731-1.4004 0.474-0.5194-0.256-0.731-0.881-0.4746-1.4l3.0586-6.1973c0.0088063-0.01852 0.025481-0.026024 0.035156-0.044922l0.82812-1.6777c0.19228-0.38967 0.59125-0.60471 0.99805-0.58203zm21.037 0v0.011719c0.37576 0.010167 0.73356 0.21252 0.91211 0.57422l0.82812 1.6777c0.009827 0.01852 0.026463 0.026024 0.035156 0.044922l3.0586 6.1973c0.25638 0.51938 0.044792 1.1441-0.47461 1.4004-0.5194 0.25625-1.144 0.045-1.4004-0.47461l-0.83008-1.6797c-0.009449-0.01474-0.02451-0.026024-0.033203-0.044922l-2.5703-5.207c0.21875 3.9804-0.61363 6.7148 1.8633 11.676l-1.8633-0.015625v7.6016c0 0.28959-0.11571 0.55126-0.30469 0.74023-0.18888 0.18822-0.45141 0.30416-0.74023 0.30469-0.28962 0-0.55125-0.11571-0.74023-0.30469-0.18883-0.18883-0.30664-0.45072-0.30664-0.74023v-7.602h-1.819v7.6016c0 0.57921-0.46765 1.0449-1.0469 1.0449-0.57923 0-1.0449-0.46571-1.0449-1.0449v-7.602h-1.8164c-0.0008287-0.035028-0.011062-0.068416-0.015625-0.10352 2.3413-4.8572 1.5717-7.6113 1.832-11.594l-2.5879 5.2422c-0.00858 0.01852-0.023792 0.029804-0.033203 0.044922l-0.83008 1.6797c-0.08612 0.17453-0.22177 0.29951-0.37305 0.39844l-0.552-1.133c-0.154-0.316-0.451-0.504-0.774-0.545l2.8828-5.8418c0.008806-0.01852 0.025443-0.026024 0.035156-0.044922l0.82812-1.6777c0.19228-0.38963 0.59125-0.60471 0.99805-0.58203zm-13.99 3.121c-1.2306 0.00051726-2.228 0.99795-2.2285 2.2285-0.00056112 1.2313 0.99719 2.23 2.2285 2.2305 1.232 0.001 2.231-0.998 2.231-2.23-0.001-1.232-1-2.229-2.231-2.229zm-0.042969 0.50195c0.96291 0.00084314 1.7433 0.78123 1.7441 1.7441 0.00023439 0.96368-0.78047 1.7452-1.7441 1.7461-0.96444 0.00023424-1.7463-0.78166-1.7461-1.7461 0.00084414-0.96368 0.78242-1.7444 1.7461-1.7441zm7.0273 1.0273c0.052203 2.9859-0.1243 5.4562-1.5684 8.7129l-1.4941-3.0625c0.266-0.151 0.491-0.382 0.637-0.68zm-4.941 4.012h0.32031c0.23344 0.006316 0.24845 0.089745 0.35938 0.31445l0.51562 1.043c0.006011 0.01149 0.016013 0.015627 0.021484 0.027344l1.9004 3.8496c0.15928 0.32267 0.088027 0.61296-0.20703 0.7832-0.25251 0.13836-0.55663 0.00126-0.67383-0.20703-0.67361-1.3906-0.92286-1.9771-1.5703-3.252-0.34261-0.69116-0.98244-0.41945-0.97461 0.22852-0.0006503 1.6349 0.033831 3.4077 0.003906 5.1719-0.033257 1.9606 0.001365 3.8857-0.001953 5.7871 0.011692 0.19781-0.16326 0.46867-0.4707 0.47656-0.30974-0.008136-0.5098-0.26735-0.50977-0.49414 0-2.0995-0.011732-4.3136-0.001953-6.4043l-1.5117-0.003906c0 2.0992 0.013256 4.3281 0 6.4219 0 0.35984-0.30971 0.4827-0.4707 0.48438-0.15941 0.001654-0.51953-0.1304-0.51953-0.49023 0-2.2006-0.003666-4.006 0.003906-5.8867 0.005662-1.4063 0.005457-3.5048 0.005859-5.0547-0.080466-0.74652-0.65066-0.76415-0.97852-0.2207-0.61277 1.2107-0.89386 1.8358-1.5312 3.1484-0.1938 0.38503-0.60245 0.27524-0.72266 0.20508-0.1508-0.092885-0.29404-0.35702-0.13477-0.67969l1.6504-3.3887c0.005472-0.01149 0.24023-0.50977 0.24023-0.50977l0.51-1.025c0.11946-0.24208 0.14571-0.3305 0.64062-0.31641z" fill-rule="evenodd" transform="matrix(.26458 0 0 .26458 0 284.3)" fill="#333"/>
 </g>
</svg>

<svg width="48" height="48" viewBox="0 0 48 48" fill="none" xmlns="http://www.w3.org/2000/svg">
<path fill-rule="evenodd" clip-rule="evenodd" d="M13.6889 8.09756C11.7559 8.09756 10.189 9.66454 10.189 11.5975C10.189 13.5305 11.7559 15.0975 13.6889 15.0975C15.6219 15.0975 17.1889 13.5305 17.1889 11.5975C17.1889 9.66454 15.6219 8.09756 13.6889 8.09756ZM24.2748 8.09756V8.09951C24.2283 8.09888 24.181 8.09898 24.1342 8.09951C23.4156 8.10896 22.7142 8.25927 22.0639 8.5331C21.4136 8.80692 20.8149 9.20538 20.3061 9.71278C19.766 10.2513 19.3599 10.8743 19.0893 11.539C18.8187 12.2036 18.6821 12.9101 18.6811 13.617C18.6801 14.3239 18.8147 15.0297 19.0835 15.6951C19.3522 16.3605 19.7578 16.9851 20.2963 17.5252C20.8349 18.0647 21.4559 18.4698 22.1205 18.74C22.7852 19.0102 23.4917 19.1454 24.1986 19.1462C24.9055 19.147 25.6133 19.0127 26.2787 18.7439C26.9441 18.4751 27.5687 18.0715 28.1087 17.533C28.6488 16.9944 29.053 16.3733 29.3235 15.7088C29.5941 15.0443 29.7307 14.3355 29.7317 13.6287C29.7327 12.922 29.5981 12.216 29.3294 11.5507C29.0604 10.8857 28.6574 10.2627 28.1184 9.72239C27.6074 9.2102 27.0084 8.8083 26.3544 8.53291C25.7014 8.25751 24.9964 8.10791 24.2745 8.09741L24.2748 8.09756ZM34.7256 8.09756C32.7927 8.09756 31.2257 9.66454 31.2257 11.5975C31.2257 13.5305 32.7927 15.0975 34.7256 15.0975C36.6586 15.0975 38.2256 13.5305 38.2256 11.5975C38.2256 9.66454 36.6586 8.09756 34.7256 8.09756ZM13.6889 8.65025C15.3166 8.65042 16.636 9.96984 16.6362 11.5975C16.636 13.2252 15.3166 14.5446 13.6889 14.5448C12.0605 14.5457 10.7399 13.226 10.7397 11.5975C10.7399 9.96914 12.0605 8.64935 13.6889 8.65025ZM34.7256 8.65025C36.3533 8.6504 37.6727 9.96984 37.6729 11.5975C37.6727 13.2252 36.3533 14.5446 34.7256 14.5448C33.0973 14.5457 31.7767 13.2259 31.7765 11.5975C31.7767 9.96914 33.0973 8.64935 34.7256 8.65025ZM24.1878 9.22644V9.2284C24.2523 9.2284 24.3164 9.22851 24.3811 9.23035C24.9347 9.25193 25.474 9.37741 25.9729 9.59558C26.4718 9.81374 26.931 10.1255 27.3225 10.5174C27.7136 10.9106 28.0143 11.3615 28.2268 11.8436C28.4393 12.3257 28.5632 12.8383 28.594 13.3573C28.6248 13.8763 28.5624 14.4003 28.4084 14.9042C28.2545 15.4081 28.008 15.8912 27.6662 16.328L21.5101 10.1522C21.8921 9.85414 22.3201 9.62365 22.7721 9.46705C23.2251 9.31045 23.7021 9.22815 24.1871 9.22685L24.1878 9.22644ZM26.3108 10.7244C25.909 10.7221 25.4127 10.8259 25.0471 11.1209C24.8643 11.2684 24.7137 11.463 24.6252 11.7166C24.5367 11.9702 24.5099 12.2829 24.5725 12.6639C24.5246 12.6908 24.4963 12.7265 24.4924 12.7771L25.0334 13.3084C25.0572 13.3084 25.0769 13.2975 25.0881 13.2674C25.6304 13.3818 26.0444 13.3076 26.3557 13.1267C26.6669 12.9458 26.8759 12.6589 27.0021 12.3494C27.1283 12.0399 27.1732 11.7067 27.1603 11.4354C27.1474 11.164 27.0769 10.953 26.9709 10.8865C26.8826 10.795 26.6251 10.7283 26.3107 10.7264L26.3108 10.7244ZM20.7483 10.9158L26.9062 17.0938C26.4684 17.4343 25.983 17.6797 25.4786 17.832C24.9741 17.9844 24.4507 18.0443 23.9317 18.0117C23.4137 17.9787 22.8997 17.8547 22.4187 17.6407C21.9367 17.4257 21.4867 17.1207 21.0947 16.7287C20.7037 16.3347 20.4007 15.8837 20.1887 15.4017C19.9757 14.9198 19.8537 14.4078 19.8227 13.8888C19.7918 13.3698 19.8506 12.8458 20.0044 12.3419C20.1582 11.838 20.4068 11.3529 20.7485 10.9161L20.7483 10.9158ZM22.9592 13.6287C22.8377 13.6925 22.8095 13.8189 22.8244 13.9744C22.8394 14.1299 22.8967 14.3143 22.9494 14.4959C23.0021 14.6775 23.0494 14.8557 23.0412 14.9978C23.033 15.1399 22.9687 15.246 22.801 15.283C22.0484 15.2779 21.7083 15.4449 21.5569 15.6755C21.4055 15.9062 21.4441 16.2008 21.4495 16.4509C21.5279 16.0944 21.5969 15.8849 21.7815 15.7654C21.9661 15.6458 22.2648 15.6156 22.801 15.6169C23.0756 15.5634 23.3191 15.4719 23.4572 15.2537C23.5954 15.0354 23.6285 14.6895 23.4846 14.1307L22.9592 13.6287ZM13.3421 15.9588L10.1547 15.9607V15.9687C9.58226 15.9797 9.03567 16.2957 8.76627 16.8477L4.89722 24.7726C4.51434 25.5572 4.8392 26.4972 5.62377 26.88C6.40835 27.2629 7.34635 26.9401 7.72925 26.1554L10.155 21.1847V38.3605C10.155 39.2336 10.8562 39.9367 11.7292 39.9367C12.6022 39.9367 13.3054 39.2336 13.3054 38.3605V29.0936H14.0651V38.3611C14.0651 39.2342 14.7683 39.9373 15.6413 39.9373C16.5143 39.9373 17.2175 39.2342 17.2175 38.3611V21.1733L19.6495 26.1553C19.7947 26.4529 20.0214 26.6835 20.2881 26.835L18.6084 30.2763C18.3646 30.7761 18.5716 31.3762 19.0713 31.6201C19.5711 31.864 20.1672 31.6571 20.4111 31.1572L21.956 27.9913V38.9321C21.956 39.4882 22.4038 39.936 22.9599 39.936C23.516 39.936 23.9638 39.4882 23.9638 38.9321V33.0279H24.4481V38.9321C24.4481 39.4882 24.8959 39.936 25.452 39.936C26.0081 39.936 26.4559 39.4882 26.4559 38.9321V27.9833L28.0047 31.157C28.2486 31.6568 28.8467 31.8638 29.3465 31.6199C29.5196 31.5354 29.6411 31.3998 29.7371 31.2488H31.1922V38.36C31.1922 39.2331 31.8934 39.9362 32.7664 39.9362C33.6394 39.9362 34.3425 39.2331 34.3425 38.36V31.2491H35.1023V38.3603C35.1023 39.2333 35.8054 39.9365 36.6785 39.9365C37.5515 39.9365 38.2547 39.2334 38.2547 38.3603V31.2494H40.4753C38.6454 27.4305 38.2554 24.9365 38.2554 21.1735L40.6873 26.1555C41.0702 26.9401 42.0101 27.263 42.7947 26.8801C43.5793 26.4972 43.9022 25.5573 43.5193 24.7727L39.6494 16.8478C39.3789 16.2935 38.8302 15.9744 38.2549 15.967V15.9591H34.3799L31.1925 15.9611V15.9689C30.6198 15.9803 30.0732 16.2958 29.8038 16.8478L25.9874 24.6641H22.4289L18.6125 16.8478C18.342 16.2935 17.7933 15.9744 17.218 15.967V15.9592H14.0306L13.3421 15.9588ZM17.1605 16.5349V16.5467C17.5362 16.5568 17.894 16.7592 18.0726 17.1209L18.9007 18.7985C18.9104 18.8171 18.927 18.8246 18.9358 18.8435L21.8206 24.6911C21.508 24.7392 21.2225 24.9209 21.0726 25.2282L20.5126 26.3742C20.3532 26.2747 20.2096 26.1476 20.12 25.966L19.2899 24.2863C19.2805 24.2716 19.2653 24.2603 19.2567 24.2414L16.6864 19.0345V38.2962C16.6864 38.5858 16.5707 38.8475 16.3818 39.0364C16.1929 39.2246 15.9304 39.3406 15.6415 39.3411C15.3519 39.3411 15.0903 39.2254 14.9013 39.0364C14.7123 38.8474 14.5943 38.5854 14.5943 38.2964V28.5486H12.7759V38.2964C12.7759 38.8756 12.3083 39.3413 11.7291 39.3413C11.1498 39.3413 10.6842 38.8756 10.6842 38.2964V18.9997L8.0963 24.2418C8.08769 24.2603 8.07251 24.2716 8.0631 24.2867L7.23261 25.9647C6.97621 26.4837 6.35162 26.6957 5.83223 26.4387C5.31284 26.1827 5.10124 25.5577 5.35764 25.0387L8.4162 18.8415C8.425 18.823 8.44168 18.8155 8.45135 18.7966L9.27946 17.1189C9.47174 16.7292 9.87071 16.5142 10.2775 16.5369L17.1605 16.5349ZM38.1972 16.5349V16.5467C38.573 16.5568 38.9308 16.7592 39.1093 17.1209L39.9374 18.7985C39.9472 18.8171 39.9639 18.8246 39.9726 18.8435L43.0311 25.0407C43.2875 25.5601 43.0759 26.1848 42.5565 26.4411C42.0371 26.6973 41.4125 26.4861 41.1561 25.9665L40.3261 24.2868C40.3166 24.272 40.3016 24.2608 40.2929 24.2419L37.7226 19.0349C37.9413 23.0153 37.109 25.7496 39.5859 30.7108L37.7226 30.6952V38.2967C37.7226 38.5863 37.6069 38.8479 37.4179 39.0369C37.229 39.2251 36.9665 39.341 36.6777 39.3416C36.3881 39.3416 36.1265 39.2259 35.9375 39.0369C35.7486 38.8481 35.6308 38.5862 35.6308 38.2967V30.6948H33.8119V38.2963C33.8119 38.8755 33.3442 39.3411 32.765 39.3411C32.1858 39.3411 31.7201 38.8754 31.7201 38.2963V30.6944H29.9037C29.9029 30.6593 29.8926 30.6259 29.8881 30.5908C32.2294 25.7337 31.4598 22.9796 31.7201 18.997L29.1322 24.2391C29.1236 24.2576 29.1084 24.2689 29.099 24.284L28.2689 25.9637C28.1828 26.1382 28.0472 26.2632 27.8959 26.3622L27.3439 25.2292C27.1899 24.9132 26.8929 24.7252 26.5699 24.6842L29.4527 18.8424C29.4615 18.8239 29.4781 18.8164 29.4878 18.7975L30.3159 17.1198C30.5082 16.7302 30.9072 16.5151 31.314 16.5378L38.1972 16.5349ZM24.2074 19.6559C22.9768 19.6564 21.9794 20.6538 21.9789 21.8844C21.9783 23.1157 22.9761 24.1143 24.2074 24.1148C25.4394 24.1158 26.4384 23.1169 26.4384 21.8849C26.4374 20.6529 25.4384 19.6559 24.2074 19.6559ZM24.1644 20.1578C25.1273 20.1587 25.9077 20.9391 25.9085 21.9019C25.9087 22.8656 25.128 23.6471 24.1644 23.648C23.2 23.6482 22.4181 22.8663 22.4183 21.9019C22.4192 20.9382 23.2007 20.1575 24.1644 20.1578ZM31.1916 21.1851C31.2438 24.171 31.0673 26.6413 29.6232 29.8979L28.1292 26.8355C28.3952 26.6845 28.6202 26.4535 28.7662 26.1555L31.1916 21.1851ZM26.2507 25.1971H26.571C26.8044 25.2034 26.8194 25.2868 26.9304 25.5115L27.446 26.5545C27.452 26.566 27.462 26.5701 27.4675 26.5819L29.3678 30.4314C29.5271 30.7541 29.4559 31.0444 29.1608 31.2146C28.9083 31.353 28.6042 31.2159 28.487 31.0076C27.8134 29.617 27.5641 29.0305 26.9167 27.7556C26.5741 27.0645 25.9343 27.3362 25.9421 27.9841C25.9415 29.619 25.9759 31.3918 25.946 33.156C25.9128 35.1165 25.9474 37.0416 25.9441 38.943C25.9558 39.1408 25.7808 39.4117 25.4734 39.4195C25.1636 39.4114 24.9636 39.1522 24.9636 38.9254C24.9636 36.8259 24.9519 34.6119 24.9617 32.5212L23.45 32.5173C23.45 34.6165 23.4632 36.8453 23.45 38.9391C23.45 39.2989 23.1403 39.4218 22.9793 39.4235C22.8199 39.4251 22.4598 39.2931 22.4598 38.9333C22.4598 36.7327 22.4561 34.9273 22.4637 33.0466C22.4693 31.6403 22.4691 29.5419 22.4695 27.992C22.3891 27.2455 21.8189 27.2278 21.491 27.7713C20.8783 28.982 20.5972 29.6071 19.9598 30.9197C19.766 31.3047 19.3574 31.1949 19.2372 31.1247C19.0864 31.0318 18.9431 30.7677 19.1024 30.445L20.7528 27.0564C20.7583 27.0449 20.993 26.5466 20.993 26.5466L21.503 25.5216C21.6225 25.2796 21.6487 25.1911 22.1436 25.2052L26.2507 25.1971Z" fill="#333333"/>
</svg>
